share/icons/hicolor/scalable/actions/foobnix-stop.svg

<?xml version="1.0" encoding="UTF-8" standalone="no"?>
<!-- Created with Inkscape (http://www.inkscape.org/) -->

<svg
   xmlns:dc="http://purl.org/dc/elements/1.1/"
   xmlns:cc="http://creativecommons.org/ns#"
   xmlns:rdf="http://www.w3.org/1999/02/22-rdf-syntax-ns#"
   xmlns:svg="http://www.w3.org/2000/svg"
   xmlns="http://www.w3.org/2000/svg"
   xmlns:xlink="http://www.w3.org/1999/xlink"
   xmlns:sodipodi="http://sodipodi.sourceforge.net/DTD/sodipodi-0.dtd"
   xmlns:inkscape="http://www.inkscape.org/namespaces/inkscape"
   width="64px"
   height="64px"
   id="svg3285"
   version="1.1"
   inkscape:version="0.91 r"
   sodipodi:docname="foobnix-stop.svg">
  <defs
     id="defs3287">
    <linearGradient
       id="linearGradient3975">
      <stop
         style="stop-color:#000011;stop-opacity:1;"
         offset="0"
         id="stop3977" />
      <stop
         id="stop3989"
         offset="0.59991527"
         style="stop-color:#00003c;stop-opacity:0.87450981;" />
      <stop
         style="stop-color:#000047;stop-opacity:0.81176466;"
         offset="0.71749866"
         id="stop3993" />
      <stop
         id="stop3985"
         offset="0.83508205"
         style="stop-color:#000058;stop-opacity:0.74901961;" />
      <stop
         id="stop3983"
         offset="0.94123614"
         style="stop-color:#000050;stop-opacity:0.49803922;" />
      <stop
         style="stop-color:#000048;stop-opacity:0;"
         offset="1"
         id="stop3979" />
    </linearGradient>
    <linearGradient
       id="linearGradient3975-4">
      <stop
         style="stop-color:#000011;stop-opacity:1;"
         offset="0"
         id="stop3977-9" />
      <stop
         id="stop3989-2"
         offset="0.59991527"
         style="stop-color:#00003c;stop-opacity:0.87450981;" />
      <stop
         style="stop-color:#000047;stop-opacity:0.81176466;"
         offset="0.71749866"
         id="stop3993-0" />
      <stop
         id="stop3985-6"
         offset="0.83508205"
         style="stop-color:#000058;stop-opacity:0.74901961;" />
      <stop
         id="stop3983-2"
         offset="0.94123614"
         style="stop-color:#000050;stop-opacity:0.49803922;" />
      <stop
         style="stop-color:#000048;stop-opacity:0;"
         offset="1"
         id="stop3979-8" />
    </linearGradient>
    <radialGradient
       inkscape:collect="always"
       xlink:href="#linearGradient3975-6"
       id="radialGradient4084-4"
       gradientUnits="userSpaceOnUse"
       cx="204.28572"
       cy="252.36218"
       fx="204.28572"
       fy="252.36218"
       r="132.62057" />
    <linearGradient
       id="linearGradient3975-6">
      <stop
         style="stop-color:#000011;stop-opacity:1;"
         offset="0"
         id="stop3977-0" />
      <stop
         id="stop3989-9"
         offset="0.59991527"
         style="stop-color:#00003c;stop-opacity:0.87450981;" />
      <stop
         style="stop-color:#000047;stop-opacity:0.81176466;"
         offset="0.71749866"
         id="stop3993-6" />
      <stop
         id="stop3985-1"
         offset="0.83508205"
         style="stop-color:#000058;stop-opacity:0.74901961;" />
      <stop
         id="stop3983-9"
         offset="0.94123614"
         style="stop-color:#000050;stop-opacity:0.49803922;" />
      <stop
         style="stop-color:#000048;stop-opacity:0;"
         offset="1"
         id="stop3979-6" />
    </linearGradient>
    <radialGradient
       inkscape:collect="always"
       xlink:href="#linearGradient3975-7"
       id="radialGradient4084-43"
       gradientUnits="userSpaceOnUse"
       cx="204.28572"
       cy="252.36218"
       fx="204.28572"
       fy="252.36218"
       r="132.62057" />
    <linearGradient
       id="linearGradient3975-7">
      <stop
         style="stop-color:#000011;stop-opacity:1;"
         offset="0"
         id="stop3977-3" />
      <stop
         id="stop3989-6"
         offset="0.59991527"
         style="stop-color:#00003c;stop-opacity:0.87450981;" />
      <stop
         style="stop-color:#000047;stop-opacity:0.81176466;"
         offset="0.71749866"
         id="stop3993-1" />
      <stop
         id="stop3985-8"
         offset="0.83508205"
         style="stop-color:#000058;stop-opacity:0.74901961;" />
      <stop
         id="stop3983-4"
         offset="0.94123614"
         style="stop-color:#000050;stop-opacity:0.49803922;" />
      <stop
         style="stop-color:#000048;stop-opacity:0;"
         offset="1"
         id="stop3979-5" />
    </linearGradient>
  </defs>
  <sodipodi:namedview
     id="base"
     pagecolor="#ffffff"
     bordercolor="#666666"
     borderopacity="1.0"
     inkscape:pageopacity="0.0"
     inkscape:pageshadow="2"
     inkscape:zoom="5.4999999"
     inkscape:cx="8.5454515"
     inkscape:cy="41.721396"
     inkscape:current-layer="g4462"
     showgrid="true"
     inkscape:document-units="px"
     inkscape:grid-bbox="true"
     inkscape:window-width="1886"
     inkscape:window-height="1180"
     inkscape:window-x="32"
     inkscape:window-y="-3"
     inkscape:window-maximized="1" />
  <metadata
     id="metadata3290">
    <rdf:RDF>
      <cc:Work
         rdf:about="">
        <dc:format>image/svg+xml</dc:format>
        <dc:type
           rdf:resource="http://purl.org/dc/dcmitype/StillImage" />
        <dc:title />
      </cc:Work>
    </rdf:RDF>
  </metadata>
  <g
     id="layer1"
     inkscape:label="Layer 1"
     inkscape:groupmode="layer">
    <g
       transform="matrix(0.29605965,0,0,0.29605965,-222.80373,-94.141427)"
       id="g4462">
      <g
         transform="matrix(0.47345134,0,0,0.47345134,743.72845,171.55694)"
         id="g4074-8"
         style="">
        <path
           sodipodi:type="arc"
           style="fill:#000038;fill-opacity:0.90036896;fill-rule:nonzero"
           id="path2985-7"
           sodipodi:cx="478.81232"
           sodipodi:cy="498.79858"
           sodipodi:rx="228.29448"
           sodipodi:ry="228.29448"
           d="M 707.1068,498.79858 A 228.29448,228.29448 0 0 1 478.81232,727.09306 228.29448,228.29448 0 0 1 250.51784,498.79858 228.29448,228.29448 0 0 1 478.81232,270.5041 228.29448,228.29448 0 0 1 707.1068,498.79858 Z"
           transform="translate(-231.85658,38.765992)" />
        <path
           sodipodi:type="arc"
           style="fill:#ffffff;fill-opacity:1;fill-rule:nonzero;stroke:#000057;stroke-opacity:1"
           id="path2987-5"
           sodipodi:cx="197.48482"
           sodipodi:cy="416.47116"
           sodipodi:rx="164.1498"
           sodipodi:ry="164.1498"
           d="M 361.63461,416.47116 A 164.1498,164.1498 0 0 1 197.48482,580.62096 164.1498,164.1498 0 0 1 33.335022,416.47116 164.1498,164.1498 0 0 1 197.48482,252.32137 164.1498,164.1498 0 0 1 361.63461,416.47116 Z"
           transform="matrix(1.24,0,0,1.24,2.0745598,21.140332)" />
        <path
           sodipodi:type="arc"
           style="fill:url(#radialGradient4084-43);fill-opacity:1;fill-rule:nonzero;stroke:#000057;stroke-width:2.38400006;stroke-linecap:round;stroke-linejoin:round;stroke-miterlimit:4;stroke-opacity:1;stroke-dasharray:none"
           id="path3933-8"
           sodipodi:cx="204.28572"
           sodipodi:cy="252.36218"
           sodipodi:rx="131.42857"
           sodipodi:ry="131.42857"
           d="M 335.71429,252.36218 A 131.42857,131.42857 0 0 1 204.28572,383.79076 131.42857,131.42857 0 0 1 72.857147,252.36218 131.42857,131.42857 0 0 1 204.28572,120.93361 131.42857,131.42857 0 0 1 335.71429,252.36218 Z"
           transform="matrix(1.1077187,0,0,1.1077187,20.664621,258.01827)" />
        <path
           sodipodi:type="arc"
           style="fill:#ffffff;fill-opacity:1;fill-rule:nonzero;stroke:#000057;stroke-width:5.10158348;stroke-linecap:round;stroke-linejoin:round;stroke-miterlimit:4;stroke-opacity:1;stroke-dasharray:none"
           id="path3997-1"
           sodipodi:cx="115.66247"
           sodipodi:cy="173.0244"
           sodipodi:rx="8.586297"
           sodipodi:ry="8.586297"
           d="m 124.24876,173.0244 a 8.586297,8.586297 0 0 1 -8.58629,8.5863 8.586297,8.586297 0 0 1 -8.5863,-8.5863 8.586297,8.586297 0 0 1 8.5863,-8.5863 8.586297,8.586297 0 0 1 8.58629,8.5863 z"
           transform="matrix(1.7641581,0,0,1.7641581,-135.40111,53.908772)" />
        <path
           sodipodi:type="arc"
           style="fill:#ffffff;fill-opacity:1;fill-rule:nonzero;stroke:#000057;stroke-width:5.10158348;stroke-linecap:round;stroke-linejoin:round;stroke-miterlimit:4;stroke-opacity:1;stroke-dasharray:none"
           id="path3997-42-4"
           sodipodi:cx="115.66247"
           sodipodi:cy="173.0244"
           sodipodi:rx="8.586297"
           sodipodi:ry="8.586297"
           d="m 124.24876,173.0244 a 8.586297,8.586297 0 0 1 -8.58629,8.5863 8.586297,8.586297 0 0 1 -8.5863,-8.5863 8.586297,8.586297 0 0 1 8.5863,-8.5863 8.586297,8.586297 0 0 1 8.58629,8.5863 z"
           transform="matrix(1.7641581,0,0,1.7641581,223.93643,55.764502)" />
        <path
           sodipodi:type="arc"
           style="fill:#ffffff;fill-opacity:1;fill-rule:nonzero;stroke:#000057;stroke-width:5.10158348;stroke-linecap:round;stroke-linejoin:round;stroke-miterlimit:4;stroke-opacity:1;stroke-dasharray:none"
           id="path3997-9-1"
           sodipodi:cx="115.66247"
           sodipodi:cy="173.0244"
           sodipodi:rx="8.586297"
           sodipodi:ry="8.586297"
           d="m 124.24876,173.0244 a 8.586297,8.586297 0 0 1 -8.58629,8.5863 8.586297,8.586297 0 0 1 -8.5863,-8.5863 8.586297,8.586297 0 0 1 8.5863,-8.5863 8.586297,8.586297 0 0 1 8.58629,8.5863 z"
           transform="matrix(1.7641581,0,0,1.7641581,-135.16091,414.55092)" />
        <path
           sodipodi:type="arc"
           style="fill:#ffffff;fill-opacity:1;fill-rule:nonzero;stroke:#000057;stroke-width:5.10158348;stroke-linecap:round;stroke-linejoin:round;stroke-miterlimit:4;stroke-opacity:1;stroke-dasharray:none"
           id="path3997-42-8-5"
           sodipodi:cx="115.66247"
           sodipodi:cy="173.0244"
           sodipodi:rx="8.586297"
           sodipodi:ry="8.586297"
           d="m 124.24876,173.0244 a 8.586297,8.586297 0 0 1 -8.58629,8.5863 8.586297,8.586297 0 0 1 -8.5863,-8.5863 8.586297,8.586297 0 0 1 8.5863,-8.5863 8.586297,8.586297 0 0 1 8.58629,8.5863 z"
           transform="matrix(1.7641581,0,0,1.7641581,224.17662,416.40665)" />
      </g>
      <rect
         y="385.8667"
         x="822.90137"
         height="76.361229"
         width="73.47683"
         id="rect4826-9-06-9"
         style="fill:#f8fcfc;fill-opacity:1;fill-rule:nonzero;stroke:#000057;stroke-width:10.48194027;stroke-linecap:round;stroke-linejoin:round;stroke-miterlimit:4;stroke-opacity:1;stroke-dasharray:none;" />
    </g>
  </g>
</svg>

<?xml version="1.0" encoding="UTF-8" standalone="no"?>
<!-- Created with Inkscape (http://www.inkscape.org/) -->

<svg
   xmlns:dc="http://purl.org/dc/elements/1.1/"
   xmlns:cc="http://creativecommons.org/ns#"
   xmlns:rdf="http://www.w3.org/1999/02/22-rdf-syntax-ns#"
   xmlns:svg="http://www.w3.org/2000/svg"
   xmlns="http://www.w3.org/2000/svg"
   xmlns:xlink="http://www.w3.org/1999/xlink"
   xmlns:sodipodi="http://sodipodi.sourceforge.net/DTD/sodipodi-0.dtd"
   xmlns:inkscape="http://www.inkscape.org/namespaces/inkscape"
   width="64px"
   height="64px"
   id="svg3285"
   version="1.1"
   inkscape:version="0.48.0 r9654"
   sodipodi:docname="foobnix_pause.svg">
  <defs
     id="defs3287">
    <linearGradient
       id="linearGradient3975">
      <stop
         style="stop-color:#000011;stop-opacity:1;"
         offset="0"
         id="stop3977" />
      <stop
         id="stop3989"
         offset="0.59991527"
         style="stop-color:#00003c;stop-opacity:0.87450981;" />
      <stop
         style="stop-color:#000047;stop-opacity:0.81176466;"
         offset="0.71749866"
         id="stop3993" />
      <stop
         id="stop3985"
         offset="0.83508205"
         style="stop-color:#000058;stop-opacity:0.74901961;" />
      <stop
         id="stop3983"
         offset="0.94123614"
         style="stop-color:#000050;stop-opacity:0.49803922;" />
      <stop
         style="stop-color:#000048;stop-opacity:0;"
         offset="1"
         id="stop3979" />
    </linearGradient>
    <linearGradient
       id="linearGradient3975-4">
      <stop
         style="stop-color:#000011;stop-opacity:1;"
         offset="0"
         id="stop3977-9" />
      <stop
         id="stop3989-2"
         offset="0.59991527"
         style="stop-color:#00003c;stop-opacity:0.87450981;" />
      <stop
         style="stop-color:#000047;stop-opacity:0.81176466;"
         offset="0.71749866"
         id="stop3993-0" />
      <stop
         id="stop3985-6"
         offset="0.83508205"
         style="stop-color:#000058;stop-opacity:0.74901961;" />
      <stop
         id="stop3983-2"
         offset="0.94123614"
         style="stop-color:#000050;stop-opacity:0.49803922;" />
      <stop
         style="stop-color:#000048;stop-opacity:0;"
         offset="1"
         id="stop3979-8" />
    </linearGradient>
    <filter
       inkscape:collect="always"
       id="filter3793-9"
       color-interpolation-filters="sRGB">
      <feGaussianBlur
         inkscape:collect="always"
         stdDeviation="1.641498"
         id="feGaussianBlur3795-06" />
    </filter>
    <filter
       inkscape:collect="always"
       id="filter3929-0"
       color-interpolation-filters="sRGB">
      <feGaussianBlur
         inkscape:collect="always"
         stdDeviation="0.92428955"
         id="feGaussianBlur3931-02" />
    </filter>
    <radialGradient
       inkscape:collect="always"
       xlink:href="#linearGradient3975-6"
       id="radialGradient4084-4"
       gradientUnits="userSpaceOnUse"
       cx="204.28572"
       cy="252.36218"
       fx="204.28572"
       fy="252.36218"
       r="132.62057" />
    <linearGradient
       id="linearGradient3975-6">
      <stop
         style="stop-color:#000011;stop-opacity:1;"
         offset="0"
         id="stop3977-0" />
      <stop
         id="stop3989-9"
         offset="0.59991527"
         style="stop-color:#00003c;stop-opacity:0.87450981;" />
      <stop
         style="stop-color:#000047;stop-opacity:0.81176466;"
         offset="0.71749866"
         id="stop3993-6" />
      <stop
         id="stop3985-1"
         offset="0.83508205"
         style="stop-color:#000058;stop-opacity:0.74901961;" />
      <stop
         id="stop3983-9"
         offset="0.94123614"
         style="stop-color:#000050;stop-opacity:0.49803922;" />
      <stop
         style="stop-color:#000048;stop-opacity:0;"
         offset="1"
         id="stop3979-6" />
    </linearGradient>
    <filter
       inkscape:collect="always"
       id="filter3793-8"
       color-interpolation-filters="sRGB">
      <feGaussianBlur
         inkscape:collect="always"
         stdDeviation="1.641498"
         id="feGaussianBlur3795-9" />
    </filter>
    <filter
       inkscape:collect="always"
       id="filter3929-6"
       color-interpolation-filters="sRGB">
      <feGaussianBlur
         inkscape:collect="always"
         stdDeviation="0.92428955"
         id="feGaussianBlur3931-5" />
    </filter>
    <radialGradient
       inkscape:collect="always"
       xlink:href="#linearGradient3975-7"
       id="radialGradient4084-43"
       gradientUnits="userSpaceOnUse"
       cx="204.28572"
       cy="252.36218"
       fx="204.28572"
       fy="252.36218"
       r="132.62057" />
    <linearGradient
       id="linearGradient3975-7">
      <stop
         style="stop-color:#000011;stop-opacity:1;"
         offset="0"
         id="stop3977-3" />
      <stop
         id="stop3989-6"
         offset="0.59991527"
         style="stop-color:#00003c;stop-opacity:0.87450981;" />
      <stop
         style="stop-color:#000047;stop-opacity:0.81176466;"
         offset="0.71749866"
         id="stop3993-1" />
      <stop
         id="stop3985-8"
         offset="0.83508205"
         style="stop-color:#000058;stop-opacity:0.74901961;" />
      <stop
         id="stop3983-4"
         offset="0.94123614"
         style="stop-color:#000050;stop-opacity:0.49803922;" />
      <stop
         style="stop-color:#000048;stop-opacity:0;"
         offset="1"
         id="stop3979-5" />
    </linearGradient>
  </defs>
  <sodipodi:namedview
     id="base"
     pagecolor="#ffffff"
     bordercolor="#666666"
     borderopacity="1.0"
     inkscape:pageopacity="0.0"
     inkscape:pageshadow="2"
     inkscape:zoom="1.9445436"
     inkscape:cx="47.867743"
     inkscape:cy="34.448669"
     inkscape:current-layer="layer1"
     showgrid="true"
     inkscape:document-units="px"
     inkscape:grid-bbox="true"
     inkscape:window-width="1366"
     inkscape:window-height="715"
     inkscape:window-x="0"
     inkscape:window-y="24"
     inkscape:window-maximized="1" />
  <metadata
     id="metadata3290">
    <rdf:RDF>
      <cc:Work
         rdf:about="">
        <dc:format>image/svg+xml</dc:format>
        <dc:type
           rdf:resource="http://purl.org/dc/dcmitype/StillImage" />
        <dc:title></dc:title>
      </cc:Work>
    </rdf:RDF>
  </metadata>
  <g
     id="layer1"
     inkscape:label="Layer 1"
     inkscape:groupmode="layer">
    <g
       transform="matrix(0.29605965,0,0,0.29605965,-222.80373,-94.141427)"
       id="g4462">
      <g
         transform="matrix(0.47345134,0,0,0.47345134,743.72845,171.55694)"
         id="g4074-8">
        <path
           sodipodi:type="arc"
           style="fill:#000038;fill-opacity:0.90036896;fill-rule:nonzero"
           id="path2985-7"
           sodipodi:cx="478.81232"
           sodipodi:cy="498.79858"
           sodipodi:rx="228.29448"
           sodipodi:ry="228.29448"
           d="m 707.1068,498.79858 c 0,126.08356 -102.21092,228.29448 -228.29448,228.29448 -126.08356,0 -228.29448,-102.21092 -228.29448,-228.29448 0,-126.08356 102.21092,-228.29448 228.29448,-228.29448 126.08356,0 228.29448,102.21092 228.29448,228.29448 z"
           transform="translate(-231.85658,38.765992)" />
        <path
           sodipodi:type="arc"
           style="fill:#ecf8fc;fill-opacity:1;fill-rule:nonzero;stroke:#000057;stroke-opacity:1;filter:url(#filter3793-8)"
           id="path2987-5"
           sodipodi:cx="197.48482"
           sodipodi:cy="416.47116"
           sodipodi:rx="164.1498"
           sodipodi:ry="164.1498"
           d="m 361.63461,416.47116 c 0,90.65743 -73.49236,164.1498 -164.14979,164.1498 -90.65743,0 -164.149798,-73.49237 -164.149798,-164.1498 0,-90.65743 73.492368,-164.14979 164.149798,-164.14979 90.65743,0 164.14979,73.49236 164.14979,164.14979 z"
           transform="matrix(1.24,0,0,1.24,2.0745598,21.140332)" />
        <path
           sodipodi:type="arc"
           style="fill:#ecf8fc;fill-opacity:1;fill-rule:nonzero;stroke:#000057;stroke-width:9.0838728;stroke-linecap:round;stroke-linejoin:round;stroke-miterlimit:4;stroke-opacity:1;stroke-dasharray:none;filter:url(#filter3929-6)"
           id="path3827-9"
           sodipodi:cx="277.79196"
           sodipodi:cy="375.55997"
           sodipodi:rx="184.85791"
           sodipodi:ry="184.85791"
           d="m 462.64987,375.55997 c 0,102.0942 -82.7637,184.85791 -184.85791,184.85791 -102.0942,0 -184.857908,-82.76371 -184.857908,-184.85791 0,-102.09421 82.763708,-184.85791 184.857908,-184.85791 102.09421,0 184.85791,82.7637 184.85791,184.85791 z"
           transform="matrix(0.99076683,0,0,0.99076683,-28.271327,165.47222)" />
        <path
           sodipodi:type="arc"
           style="fill:url(#radialGradient4084-43);fill-opacity:1;fill-rule:nonzero;stroke:#000057;stroke-width:2.38400006;stroke-linecap:round;stroke-linejoin:round;stroke-miterlimit:4;stroke-opacity:1;stroke-dasharray:none"
           id="path3933-8"
           sodipodi:cx="204.28572"
           sodipodi:cy="252.36218"
           sodipodi:rx="131.42857"
           sodipodi:ry="131.42857"
           d="m 335.71429,252.36218 c 0,72.586 -58.84257,131.42858 -131.42857,131.42858 -72.586,0 -131.428573,-58.84258 -131.428573,-131.42858 0,-72.58599 58.842573,-131.42857 131.428573,-131.42857 72.586,0 131.42857,58.84258 131.42857,131.42857 z"
           transform="matrix(1.1077187,0,0,1.1077187,20.664621,258.01827)" />
        <path
           sodipodi:type="arc"
           style="fill:#b4ecfc;fill-opacity:1;fill-rule:nonzero;stroke:#000057;stroke-width:5.10158348;stroke-linecap:round;stroke-linejoin:round;stroke-miterlimit:4;stroke-opacity:1;stroke-dasharray:none"
           id="path3997-1"
           sodipodi:cx="115.66247"
           sodipodi:cy="173.0244"
           sodipodi:rx="8.586297"
           sodipodi:ry="8.586297"
           d="m 124.24876,173.0244 c 0,4.74208 -3.84421,8.5863 -8.58629,8.5863 -4.74208,0 -8.5863,-3.84422 -8.5863,-8.5863 0,-4.74208 3.84422,-8.5863 8.5863,-8.5863 4.74208,0 8.58629,3.84422 8.58629,8.5863 z"
           transform="matrix(1.7641581,0,0,1.7641581,-135.40111,53.908772)" />
        <path
           sodipodi:type="arc"
           style="fill:#b4ecfc;fill-opacity:1;fill-rule:nonzero;stroke:#000057;stroke-width:5.10158348;stroke-linecap:round;stroke-linejoin:round;stroke-miterlimit:4;stroke-opacity:1;stroke-dasharray:none"
           id="path3997-42-4"
           sodipodi:cx="115.66247"
           sodipodi:cy="173.0244"
           sodipodi:rx="8.586297"
           sodipodi:ry="8.586297"
           d="m 124.24876,173.0244 c 0,4.74208 -3.84421,8.5863 -8.58629,8.5863 -4.74208,0 -8.5863,-3.84422 -8.5863,-8.5863 0,-4.74208 3.84422,-8.5863 8.5863,-8.5863 4.74208,0 8.58629,3.84422 8.58629,8.5863 z"
           transform="matrix(1.7641581,0,0,1.7641581,223.93643,55.764502)" />
        <path
           sodipodi:type="arc"
           style="fill:#b4ecfc;fill-opacity:1;fill-rule:nonzero;stroke:#000057;stroke-width:5.10158348;stroke-linecap:round;stroke-linejoin:round;stroke-miterlimit:4;stroke-opacity:1;stroke-dasharray:none"
           id="path3997-9-1"
           sodipodi:cx="115.66247"
           sodipodi:cy="173.0244"
           sodipodi:rx="8.586297"
           sodipodi:ry="8.586297"
           d="m 124.24876,173.0244 c 0,4.74208 -3.84421,8.5863 -8.58629,8.5863 -4.74208,0 -8.5863,-3.84422 -8.5863,-8.5863 0,-4.74208 3.84422,-8.5863 8.5863,-8.5863 4.74208,0 8.58629,3.84422 8.58629,8.5863 z"
           transform="matrix(1.7641581,0,0,1.7641581,-135.16091,414.55092)" />
        <path
           sodipodi:type="arc"
           style="fill:#b4ecfc;fill-opacity:1;fill-rule:nonzero;stroke:#000057;stroke-width:5.10158348;stroke-linecap:round;stroke-linejoin:round;stroke-miterlimit:4;stroke-opacity:1;stroke-dasharray:none"
           id="path3997-42-8-5"
           sodipodi:cx="115.66247"
           sodipodi:cy="173.0244"
           sodipodi:rx="8.586297"
           sodipodi:ry="8.586297"
           d="m 124.24876,173.0244 c 0,4.74208 -3.84421,8.5863 -8.58629,8.5863 -4.74208,0 -8.5863,-3.84422 -8.5863,-8.5863 0,-4.74208 3.84422,-8.5863 8.5863,-8.5863 4.74208,0 8.58629,3.84422 8.58629,8.5863 z"
           transform="matrix(1.7641581,0,0,1.7641581,224.17662,416.40665)" />
      </g>
      <rect
         y="385.8667"
         x="822.90137"
         height="76.361229"
         width="73.47683"
         id="rect4826-9-06-9"
         style="fill:#f8fcfc;fill-opacity:1;fill-rule:nonzero;stroke:#000057;stroke-width:10.48194027;stroke-linecap:round;stroke-linejoin:round;stroke-miterlimit:4;stroke-opacity:1;stroke-dasharray:none" />
    </g>
  </g>
</svg>
